X: 160
M: 6/8
L: 1/8
K: Gm
d2g d2e | d2g d2e | d2c B2A | B2A G2B/c/ |\
d2g d2e | d2g d2g | f2d e2c | B3- B2 :|
|: d/e/ |\
f2d g2=B | c2d e2c/d/ | e2c f2A | B2c d2e |\
d2g d2e | d2c B2A | G3- G2 :|

